X: 21564
T: The Maid of Dornock
Q: "Moderately Quick"
%R: reel
B: James Oswald "The Caledonian Pocket Companion" v.2 p.156 #4
Z: 2018 John Chambers <jc:trillian.mit.edu>
M: C|
L: 1/8
K: G
|:\
d3g (ed)(cB) | (dc)(BA) {c}B2(AG) |\
d3g (ed)(cB) | {d}c2BA G4 ::\
B2 (B/^c/d) c2 (c/d/e) | d2 (d/e/f) (e^c)(BA) |
a2 (g/a/b) (af)(ed) | (eg)(fe) d2D2 |\
d3g (ed)(cB) | (dc)(BA) {c}B2(AG) |\
e3g (ed)(cB) | {d}c2(BA) G4 :|


